X:1040
T:untitled
A:Wyresdale, Lancashire
B:E and J Winder, 1835-41
L:1/8
M:6/8
O:England
Z:Richard Robinson 
%%TUNEURL: http://www.leeds.ac.uk/music/Info/RRTuneBk/gettune/00001115.html
%%ID:00001115
K:G
d | \
gfe def | g2G G2d | gfe def | g3 b2d | \
gfe def | g2G G2c | B3 A3   | G3-G2 ::
c | \
Bcd dcB | cde edc | Bcd dcB | cBc A2c | \
Bcd dcB | cde edc | B3 A3 | G3-G2 |]
%%newpage
%page 86
